!!!SOCIAL_FUNCTION:	love songs
!!!PDT:	1932
!!!OTL: No_137_Love_Song_(c).krn
!!!REG: Wisconsin
!!!LANG: Non-Tone
!!!LING_GROUP: Algonquin
**kern
*staff1
=1-
*clefF4
*k[b-]
*M2/4
4c\
4d\
=2||
*M3/4
2c\
4A\
=3
2.G\
=4
4d\
4c\
4d\
=5
2.c\
=6||
*M2/4
4c\
(4c\
=7||
*M3/4
2B-\)
(4G\
=8||
*M2/4
4F\)
4r
=9||
*M3/4
4c\
4G\
4A\
=10
2.G\
=11||
*M2/4
4G\
(4G\
=12||
*M3/4
(2F\)
4D\)
=13||
*M2/4
4C/
4r
=14||
*M3/4
4G\
4F\
4G\
=15
2.F\
=16||
*M2/4
4G\
(4G\
=17
2F\)
=18
(4F\
4D\)
=19||
*M3/4
2.C/
=20||
*M2/4
4C/
4r
=21
4C/
4r
=22
4c\
4G\
=23||
*M3/4
2.c\
=24||
*M2/4
2B-\
=25
4d\
4c\
=26
2G\
=27
2c\
=28
2F\
=29
4F\
4D\
=30
8C/
8r
4C/
=31
2C/
=32
4C/
4r
=33
(2G\
=34
(2F\)
=35
(2D\)
=36
4C/)
[4C/
=37
4C/]
4C/
==
*-
